icons/svg/functional-icons/volcano_active.svg

<?xml version="1.0" encoding="UTF-8" standalone="no"?>
<svg
   xmlns:dc="http://purl.org/dc/elements/1.1/"
   xmlns:cc="http://creativecommons.org/ns#"
   xmlns:rdf="http://www.w3.org/1999/02/22-rdf-syntax-ns#"
   xmlns:svg="http://www.w3.org/2000/svg"
   xmlns="http://www.w3.org/2000/svg"
   xmlns:sodipodi="http://sodipodi.sourceforge.net/DTD/sodipodi-0.dtd"
   xmlns:inkscape="http://www.inkscape.org/namespaces/inkscape"
   width="580"
   height="580"
   id="svg2"
   version="1.1"
   inkscape:version="0.48.4 r9939"
   sodipodi:docname="volcano_active.svg">
  <defs
     id="defs13" />
  <sodipodi:namedview
     pagecolor="#ffffff"
     bordercolor="#666666"
     borderopacity="1"
     objecttolerance="10"
     gridtolerance="10"
     guidetolerance="10"
     inkscape:pageopacity="0"
     inkscape:pageshadow="2"
     inkscape:window-width="1920"
     inkscape:window-height="1004"
     id="namedview11"
     showgrid="false"
     inkscape:zoom="0.28771931"
     inkscape:cx="1197.7367"
     inkscape:cy="199.91096"
     inkscape:window-x="1680"
     inkscape:window-y="0"
     inkscape:window-maximized="1"
     inkscape:current-layer="svg2" />
  <metadata
     id="metadata2975">image/svg+xmlen<rdf:RDF>
  <cc:Work
     rdf:about="">
    <dc:format>image/svg+xml</dc:format>
    <dc:type
       rdf:resource="http://purl.org/dc/dcmitype/StillImage" />
    <dc:title />
  </cc:Work>
</rdf:RDF>
</metadata>
  <g
     id="g5"
     transform="translate(-30.720339,64)">
    <title
       id="title7">Layer 1</title>
    <g
       id="g1327" />
    <path
       d="m 144.97279,415.42847 144.95983,-251.07776 145.09393,251.30069 -290.05377,-0.22299 -2e-5,0 0,0 2e-5,6e-5 1e-5,0 z"
       id="path4355"
       inkscape:connector-curvature="0"
       style="fill:#d40000;fill-rule:evenodd;stroke:#d40000;stroke-width:2.51465988px" />
  </g>
  <path
     inkscape:connector-curvature="0"
     d="M 437.77562,79.81938 C 423.13888,71.687862 395.22705,56.44605 374.0851,56.44605 c -37.40499,0 -59.4452,19.638613 -70.82931,37.527953 -61.79955,-4.878911 -53.05487,108.241637 -53.05487,108.241637 11.87601,-75.69462 58.65117,-79.11338 58.65117,-72.22843 0,0 17.37874,-30.34191 51.5311,-38.473429 34.15239,-8.131521 73.78876,19.392669 73.78876,19.392669 0,0 40.6576,-34.152373 108.96235,-22.768252 0,0 -46.81175,-40.84489 -105.35868,-8.318818 z"
     id="path5"
     sodipodi:nodetypes="cscccsccc"
     style="stroke:#d40000;fill:#d40000;fill-opacity:1;color:#000000;fill-rule:evenodd;stroke-width:2.51465987999999996px;stroke-linecap:butt;stroke-linejoin:miter;stroke-miterlimit:4;stroke-opacity:1;stroke-dasharray:none;stroke-dashoffset:0;marker:none;visibility:visible;display:inline;overflow:visible;enable-background:accumulate" />
  <path
     inkscape:connector-curvature="0"
     d="m 399.301,155.35127 c 68.30475,39.03128 140.5807,-18.42396 140.5807,-18.42396 0,0 -49.75334,102.45713 -139.20005,52.04173 -30.89977,-16.26304 -93.66353,3.78195 -116.43177,24.92389 21.14193,-35.77868 85.77764,-76.43102 115.05112,-58.54166 z"
     id="path9"
     sodipodi:nodetypes="ccccc"
     style="stroke:#d40000;fill:#d40000;fill-opacity:1;color:#000000;fill-rule:evenodd;stroke-width:2.51465987999999996px;stroke-linecap:butt;stroke-linejoin:miter;stroke-miterlimit:4;stroke-opacity:1;stroke-dasharray:none;stroke-dashoffset:0;marker:none;visibility:visible;display:inline;overflow:visible;enable-background:accumulate" />
  <g
     id="g1327-3"
     transform="translate(613.20649,82.864983)" />
</svg>

<svg width="580" height="580" viewBox="0 0 580 580" fill="none" xmlns="http://www.w3.org/2000/svg">
<path fill-rule="evenodd" clip-rule="evenodd" d="M114.252 479.428L259.212 228.351L404.306 479.651L114.252 479.428H114.252L114.252 479.428H114.252V479.428Z" fill="#D40000" stroke="#D40000" stroke-width="2.51466"/>
<path fill-rule="evenodd" clip-rule="evenodd" d="M437.776 79.8196C423.139 71.6881 395.227 56.4463 374.085 56.4463C336.68 56.4463 314.64 76.0849 303.256 93.9742C241.456 89.0953 250.201 202.216 250.201 202.216C262.077 126.521 308.852 123.103 308.852 129.987C308.852 129.987 326.231 99.6455 360.383 91.514C394.536 83.3825 434.172 110.907 434.172 110.907C434.172 110.907 474.829 76.7543 543.134 88.1384C543.134 88.1384 496.323 47.2935 437.776 79.8196V79.8196Z" fill="#D40000" stroke="#D40000" stroke-width="2.51466"/>
<path fill-rule="evenodd" clip-rule="evenodd" d="M399.301 155.352C467.606 194.383 539.882 136.928 539.882 136.928C539.882 136.928 490.128 239.385 400.682 188.969C369.782 172.706 307.018 192.751 284.25 213.893C305.392 178.115 370.028 137.462 399.301 155.352V155.352Z" fill="#D40000" stroke="#D40000" stroke-width="2.51466"/>
</svg>
